; generated by Slic3r 1.2.9 on 2018-09-15 at 18:39:36

; external perimeters extrusion width = 0.40mm
; perimeters extrusion width = 0.40mm
; infill extrusion width = 0.65mm
; solid infill extrusion width = 0.40mm
; top infill extrusion width = 0.40mm

M104 S200 ; set temperature
; -- START GCODE --
M800        ; Custom GCODE to fire start print procedure
; -- end of START GCODE --
M109 S200 ; wait for temperature to be reached
G21 ; set units to millimeters
G90 ; use absolute coordinates
M82 ; use absolute distances for extrusion
G92 E0
M106 S255
; LAYER 0, HEIGHT 0.1
G1 Z0.100 F12000.000
G1 E-2.00000 F12000.00000
G92 E0
G1 X92.573 Y130.074 F12000.000
G1 E2.00000 F12000.00000
M204 S1000
G1 X92.763 Y129.955 E2.00352 F4320.000
G1 X94.584 Y129.077 E2.03534
G1 X94.796 Y129.003 E2.03887
G1 X96.762 Y128.554 E2.07061
G1 X96.989 Y128.528 E2.07421
G1 X98.000 Y128.472 E2.09014
G1 X112.000 Y128.472 E2.31047
G1 X113.006 Y128.528 E2.32633
G1 X113.233 Y128.554 E2.32993
G1 X115.204 Y129.003 E2.36175
G1 X115.416 Y129.077 E2.36527
G1 X117.237 Y129.955 E2.39709
G1 X117.427 Y130.074 E2.40061
G1 X119.005 Y131.332 E2.43238
G1 X119.166 Y131.493 E2.43595
G1 X120.426 Y133.073 E2.46777
G1 X120.545 Y133.263 E2.47130
G1 X121.423 Y135.084 E2.50311
G1 X121.497 Y135.296 E2.50664
G1 X121.946 Y137.262 E2.53838
G1 X121.972 Y137.489 E2.54198
G1 X122.028 Y138.500 E2.55791
G1 X122.028 Y158.500 E2.87267
G1 X121.972 Y159.511 E2.88860
G1 X121.946 Y159.738 E2.89219
G1 X121.497 Y161.704 E2.92394
G1 X121.423 Y161.916 E2.92747
G1 X120.545 Y163.737 E2.95929
G1 X120.426 Y163.927 E2.96281
G1 X119.166 Y165.507 E2.99463
G1 X119.007 Y165.666 E2.99815
G1 X117.427 Y166.926 E3.02997
G1 X117.237 Y167.045 E3.03349
G1 X115.416 Y167.923 E3.06531
G1 X115.204 Y167.997 E3.06883
G1 X113.233 Y168.446 E3.10065
G1 X113.011 Y168.472 E3.10418
G1 X112.000 Y168.528 E3.12011
G1 X98.000 Y168.528 E3.34044
G1 X96.989 Y168.472 E3.35637
G1 X96.767 Y168.446 E3.35990
G1 X94.796 Y167.997 E3.39171
G1 X94.576 Y167.920 E3.39538
G1 X92.763 Y167.045 E3.42706
G1 X92.573 Y166.926 E3.43058
G1 X90.993 Y165.666 E3.46240
G1 X90.834 Y165.507 E3.46592
G1 X89.574 Y163.927 E3.49774
G1 X89.455 Y163.737 E3.50126
G1 X88.577 Y161.916 E3.53308
G1 X88.504 Y161.705 E3.53660
G1 X88.054 Y159.733 E3.56842
G1 X88.027 Y159.500 E3.57212
G1 X87.972 Y158.500 E3.58788
G1 X87.972 Y138.500 E3.90264
G1 X88.027 Y137.498 E3.91843
G1 X88.054 Y137.267 E3.92210
G1 X88.503 Y135.298 E3.95387
G1 X88.577 Y135.084 E3.95744
G1 X89.455 Y133.263 E3.98926
G1 X89.574 Y133.073 E3.99278
G1 X90.834 Y131.493 E4.02460
G1 X90.993 Y131.334 E4.02812
G1 X92.526 Y130.111 E4.05899
G1 X92.775 Y130.394 F12000.000
G1 X92.964 Y130.275 E4.06252 F4320.000
G1 X94.707 Y129.435 E4.09297
G1 X94.921 Y129.361 E4.09653
G1 X96.804 Y128.930 E4.12694
G1 X97.032 Y128.905 E4.13053
G1 X98.000 Y128.850 E4.14580
G1 X112.000 Y128.850 E4.36613
G1 X112.964 Y128.904 E4.38132
G1 X113.191 Y128.930 E4.38492
G1 X115.079 Y129.361 E4.41540
G1 X115.291 Y129.435 E4.41893
G1 X117.036 Y130.275 E4.44941
G1 X117.225 Y130.394 E4.45293
G1 X118.737 Y131.600 E4.48337
G1 X118.898 Y131.760 E4.48694
G1 X120.106 Y133.275 E4.51742
G1 X120.225 Y133.464 E4.52095
G1 X121.065 Y135.209 E4.55143
G1 X121.139 Y135.421 E4.55496
G1 X121.570 Y137.304 E4.58537
G1 X121.595 Y137.532 E4.58896
G1 X121.650 Y138.500 E4.60423
G1 X121.650 Y158.500 E4.91899
G1 X121.595 Y159.468 E4.93425
G1 X121.570 Y159.695 E4.93784
G1 X121.139 Y161.579 E4.96826
G1 X121.065 Y161.791 E4.97178
G1 X120.225 Y163.536 E5.00227
G1 X120.106 Y163.725 E5.00579
G1 X118.898 Y165.240 E5.03628
G1 X118.740 Y165.398 E5.03980
G1 X117.225 Y166.606 E5.07028
G1 X117.036 Y166.725 E5.07381
G1 X115.291 Y167.565 E5.10429
G1 X115.079 Y167.639 E5.10781
G1 X113.191 Y168.070 E5.13830
G1 X112.969 Y168.095 E5.14182
G1 X112.000 Y168.150 E5.15709
G1 X98.000 Y168.150 E5.37742
G1 X97.032 Y168.095 E5.39268
G1 X96.809 Y168.070 E5.39621
G1 X94.921 Y167.639 E5.42669
G1 X94.701 Y167.562 E5.43035
G1 X92.964 Y166.725 E5.46070
G1 X92.775 Y166.606 E5.46422
G1 X91.260 Y165.398 E5.49471
G1 X91.102 Y165.240 E5.49823
G1 X89.894 Y163.725 E5.52871
G1 X89.775 Y163.536 E5.53224
G1 X88.935 Y161.791 E5.56272
G1 X88.861 Y161.580 E5.56623
G1 X88.430 Y159.691 E5.59673
G1 X88.403 Y159.458 E5.60042
G1 X88.350 Y158.500 E5.61552
G1 X88.350 Y138.500 E5.93027
G1 X88.404 Y137.540 E5.94540
G1 X88.430 Y137.309 E5.94907
G1 X88.860 Y135.423 E5.97951
G1 X88.935 Y135.209 E5.98307
G1 X89.775 Y133.464 E6.01356
G1 X89.894 Y133.275 E6.01708
G1 X91.102 Y131.760 E6.04756
G1 X91.260 Y131.602 E6.05109
G1 X92.728 Y130.432 E6.08063
G1 X92.976 Y130.715 F12000.000
G1 X93.166 Y130.596 E6.08415 F4320.000
G1 X94.834 Y129.792 E6.11330
G1 X95.046 Y129.718 E6.11682
G1 X96.847 Y129.306 E6.14590
G1 X97.074 Y129.281 E6.14950
G1 X98.000 Y129.229 E6.16409
G1 X112.000 Y129.229 E6.38442
G1 X112.922 Y129.280 E6.39895
G1 X113.149 Y129.306 E6.40255
G1 X114.954 Y129.718 E6.43170
G1 X115.166 Y129.792 E6.43522
G1 X116.834 Y130.596 E6.46437
G1 X117.024 Y130.715 E6.46789
G1 X118.470 Y131.867 E6.49699
G1 X118.630 Y132.028 E6.50057
G1 X119.785 Y133.476 E6.52972
G1 X119.904 Y133.666 E6.53324
G1 X120.708 Y135.334 E6.56239
G1 X120.782 Y135.546 E6.56591
G1 X121.194 Y137.347 E6.59499
G1 X121.271 Y138.500 E6.61318
G1 X121.271 Y158.500 E6.92794
G1 X121.219 Y159.426 E6.94254
G1 X121.194 Y159.652 E6.94612
G1 X120.782 Y161.454 E6.97521
G1 X120.708 Y161.666 E6.97873
G1 X119.904 Y163.334 E7.00788
G1 X119.785 Y163.524 E7.01141
G1 X118.630 Y164.972 E7.04056
G1 X118.472 Y165.130 E7.04408
G1 X117.024 Y166.285 E7.07323
G1 X116.834 Y166.404 E7.07675
G1 X115.166 Y167.208 E7.10590
G1 X114.954 Y167.282 E7.10943
G1 X113.149 Y167.694 E7.13858
G1 X112.926 Y167.719 E7.14210
G1 X112.000 Y167.771 E7.15670
G1 X98.000 Y167.771 E7.37703
G1 X97.074 Y167.719 E7.39162
G1 X96.851 Y167.694 E7.39515
G1 X95.046 Y167.282 E7.42430
G1 X94.826 Y167.205 E7.42795
G1 X93.166 Y166.404 E7.45697
G1 X92.976 Y166.285 E7.46050
G1 X91.528 Y165.130 E7.48965
G1 X91.370 Y164.972 E7.49317
G1 X90.215 Y163.524 E7.52232
G1 X90.096 Y163.334 E7.52584
G1 X89.292 Y161.666 E7.55499
G1 X89.213 Y161.440 E7.55876
G1 X88.806 Y159.649 E7.58767
G1 X88.729 Y158.500 E7.60578
G1 X88.729 Y138.500 E7.92054
G1 X88.780 Y137.582 E7.93501
G1 X88.806 Y137.351 E7.93866
G1 X89.217 Y135.548 E7.96778
G1 X89.292 Y135.334 E7.97134
G1 X90.096 Y133.666 E8.00049
G1 X90.215 Y133.476 E8.00401
G1 X91.370 Y132.028 E8.03316
G1 X91.528 Y131.870 E8.03668
G1 X92.929 Y130.752 E8.06489
G1 X93.177 Y131.035 F12000.000
G1 X93.367 Y130.916 E8.06841 F4320.000
G1 X94.958 Y130.150 E8.09620
G1 X95.171 Y130.075 E8.09975
G1 X96.890 Y129.682 E8.12750
G1 X97.116 Y129.657 E8.13109
G1 X98.000 Y129.607 E8.14502
G1 X112.000 Y129.607 E8.36535
G1 X112.879 Y129.656 E8.37921
G1 X113.106 Y129.682 E8.38281
G1 X114.829 Y130.075 E8.41062
G1 X115.041 Y130.149 E8.41415
G1 X116.633 Y130.916 E8.44196
G1 X116.823 Y131.035 E8.44548
G1 X118.202 Y132.135 E8.47325
G1 X118.363 Y132.296 E8.47682
G1 X119.465 Y133.677 E8.50464
G1 X119.584 Y133.867 E8.50816
G1 X120.351 Y135.459 E8.53598
G1 X120.425 Y135.671 E8.53950
G1 X120.818 Y137.390 E8.56725
G1 X120.893 Y138.500 E8.58477
G1 X120.893 Y158.500 E8.89952
G1 X120.843 Y159.384 E8.91345
G1 X120.818 Y159.610 E8.91704
G1 X120.425 Y161.329 E8.94479
G1 X120.351 Y161.541 E8.94832
G1 X119.584 Y163.133 E8.97613
G1 X119.465 Y163.323 E8.97966
G1 X118.363 Y164.704 E9.00747
G1 X118.204 Y164.863 E9.01100
G1 X116.823 Y165.965 E9.03881
G1 X116.633 Y166.084 E9.04234
G1 X115.041 Y166.851 E9.07015
G1 X114.829 Y166.925 E9.07367
G1 X113.106 Y167.318 E9.10149
G1 X112.884 Y167.343 E9.10501
G1 X112.000 Y167.393 E9.11894
G1 X98.000 Y167.393 E9.33927
G1 X97.116 Y167.343 E9.35320
G1 X96.894 Y167.318 E9.35673
G1 X95.171 Y166.925 E9.38454
G1 X94.952 Y166.848 E9.38819
G1 X93.367 Y166.084 E9.41588
G1 X93.177 Y165.965 E9.41941
G1 X91.796 Y164.863 E9.44722
G1 X91.637 Y164.704 E9.45075
G1 X90.535 Y163.323 E9.47856
G1 X90.416 Y163.133 E9.48209
G1 X89.649 Y161.541 E9.50990
G1 X89.570 Y161.315 E9.51366
G1 X89.182 Y159.606 E9.54124
G1 X89.107 Y158.500 E9.55869
G1 X89.107 Y138.500 E9.87345
G1 X89.156 Y137.624 E9.88725
G1 X89.182 Y137.394 E9.89090
G1 X89.575 Y135.673 E9.91868
G1 X89.649 Y135.459 E9.92224
G1 X90.416 Y133.867 E9.95006
G1 X90.535 Y133.677 E9.95358
G1 X91.637 Y132.296 E9.98140
G1 X91.796 Y132.137 E9.98492
G1 X93.130 Y131.073 E10.01179
G1 X93.379 Y131.356 F12000.000
G1 X93.568 Y131.237 E10.01532 F4320.000
G1 X95.084 Y130.506 E10.04180
G1 X95.296 Y130.433 E10.04532
G1 X96.932 Y130.059 E10.07174
G1 X97.159 Y130.033 E10.07533
G1 X98.000 Y129.986 E10.08859
G1 X112.000 Y129.986 E10.30892
G1 X112.837 Y130.033 E10.32212
G1 X113.064 Y130.058 E10.32570
G1 X114.704 Y130.433 E10.35218
G1 X114.916 Y130.507 E10.35571
G1 X116.432 Y131.237 E10.38219
G1 X116.621 Y131.356 E10.38571
G1 X117.935 Y132.403 E10.41215
G1 X118.095 Y132.563 E10.41572
G1 X119.144 Y133.879 E10.44220
G1 X119.263 Y134.068 E10.44572
G1 X119.993 Y135.584 E10.47221
G1 X120.067 Y135.796 E10.47573
G1 X120.441 Y137.432 E10.50215
G1 X120.514 Y138.500 E10.51899
G1 X120.514 Y158.500 E10.83375
G1 X120.467 Y159.341 E10.84701
G1 X120.441 Y159.567 E10.85059
G1 X120.067 Y161.204 E10.87702
G1 X119.993 Y161.416 E10.88054
G1 X119.263 Y162.932 E10.90702
G1 X119.144 Y163.121 E10.91055
G1 X118.095 Y164.437 E10.93703
G1 X117.937 Y164.595 E10.94055
G1 X116.621 Y165.644 E10.96703
G1 X116.432 Y165.763 E10.97056
G1 X114.916 Y166.493 E10.99704
G1 X114.704 Y166.567 E11.00056
G1 X113.064 Y166.942 E11.02704
G1 X112.841 Y166.967 E11.03057
G1 X112.000 Y167.014 E11.04383
G1 X98.000 Y167.014 E11.26416
G1 X97.159 Y166.967 E11.27742
G1 X96.936 Y166.942 E11.28094
G1 X95.296 Y166.567 E11.30743
G1 X95.077 Y166.491 E11.31107
G1 X93.568 Y165.763 E11.33743
G1 X93.379 Y165.644 E11.34095
G1 X92.063 Y164.595 E11.36744
G1 X91.905 Y164.437 E11.37096
G1 X90.856 Y163.121 E11.39744
G1 X90.737 Y162.932 E11.40097
G1 X90.007 Y161.416 E11.42745
G1 X89.928 Y161.191 E11.43119
G1 X89.558 Y159.564 E11.45745
G1 X89.486 Y158.500 E11.47423
G1 X89.486 Y138.500 E11.78899
G1 X89.532 Y137.666 E11.80213
G1 X89.558 Y137.436 E11.80578
G1 X89.932 Y135.798 E11.83223
G1 X90.007 Y135.584 E11.83578
G1 X90.737 Y134.068 E11.86226
G1 X90.856 Y133.879 E11.86579
G1 X91.905 Y132.563 E11.89227
G1 X92.063 Y132.405 E11.89579
G1 X93.332 Y131.393 E11.92133
G1 X93.580 Y131.676 F12000.000
G1 X93.770 Y131.557 E11.92485 F4320.000
G1 X95.211 Y130.863 E11.95003
G1 X95.421 Y130.790 E11.95353
G1 X96.975 Y130.435 E11.97861
G1 X97.201 Y130.409 E11.98220
G1 X98.000 Y130.364 E11.99479
G1 X112.000 Y130.364 E12.21512
G1 X112.795 Y130.409 E12.22765
G1 X113.021 Y130.434 E12.23124
G1 X114.579 Y130.790 E12.25639
G1 X114.791 Y130.864 E12.25991
G1 X116.230 Y131.557 E12.28506
G1 X116.420 Y131.676 E12.28858
G1 X117.667 Y132.671 E12.31369
G1 X117.827 Y132.831 E12.31725
G1 X118.824 Y134.080 E12.34240
G1 X118.943 Y134.270 E12.34592
G1 X119.636 Y135.709 E12.37107
G1 X119.710 Y135.921 E12.37460
G1 X120.065 Y137.475 E12.39968
G1 X120.136 Y138.500 E12.41586
G1 X120.136 Y158.500 E12.73061
G1 X120.091 Y159.299 E12.74321
G1 X120.065 Y159.525 E12.74678
G1 X119.710 Y161.079 E12.77188
G1 X119.636 Y161.291 E12.77540
G1 X118.943 Y162.730 E12.80055
G1 X118.824 Y162.920 E12.80407
G1 X117.827 Y164.169 E12.82922
G1 X117.669 Y164.327 E12.83274
G1 X116.420 Y165.324 E12.85789
G1 X116.230 Y165.443 E12.86142
G1 X114.791 Y166.136 E12.88656
G1 X114.579 Y166.210 E12.89009
G1 X113.021 Y166.566 E12.91523
G1 X112.799 Y166.591 E12.91876
G1 X112.000 Y166.636 E12.93135
G1 X98.000 Y166.636 E13.15168
G1 X97.201 Y166.591 E13.16427
G1 X96.979 Y166.566 E13.16780
G1 X95.421 Y166.210 E13.19295
G1 X95.203 Y166.134 E13.19658
G1 X93.770 Y165.443 E13.22162
G1 X93.580 Y165.324 E13.22514
G1 X92.331 Y164.327 E13.25029
G1 X92.173 Y164.169 E13.25381
G1 X91.176 Y162.920 E13.27896
G1 X91.057 Y162.730 E13.28248
G1 X90.364 Y161.291 E13.30763
G1 X90.286 Y161.067 E13.31136
G1 X89.934 Y159.521 E13.33630
G1 X89.864 Y158.500 E13.35242
G1 X89.864 Y138.500 E13.66717
G1 X89.908 Y137.708 E13.67965
G1 X89.934 Y137.478 E13.68329
G1 X90.289 Y135.923 E13.70841
G1 X90.364 Y135.709 E13.71196
G1 X91.057 Y134.270 E13.73711
G1 X91.176 Y134.080 E13.74063
G1 X92.173 Y132.831 E13.76578
G1 X92.331 Y132.673 E13.76931
G1 X93.533 Y131.714 E13.79351
G1 X93.782 Y131.997 F12000.000
G1 X93.971 Y131.878 E13.79703 F4320.000
G1 X95.336 Y131.221 E13.82088
G1 X95.546 Y131.147 E13.82437
G1 X97.017 Y130.811 E13.84813
G1 X97.243 Y130.785 E13.85171
G1 X98.000 Y130.743 E13.86363
G1 X112.000 Y130.743 E14.08396
G1 X112.753 Y130.785 E14.09583
G1 X112.979 Y130.810 E14.09941
G1 X114.454 Y131.147 E14.12323
G1 X114.666 Y131.221 E14.12675
G1 X116.029 Y131.878 E14.15056
G1 X116.218 Y131.997 E14.15409
G1 X117.400 Y132.938 E14.17786
G1 X117.560 Y133.099 E14.18142
G1 X118.503 Y134.282 E14.20524
G1 X118.622 Y134.471 E14.20876
G1 X119.279 Y135.834 E14.23257
G1 X119.353 Y136.046 E14.23610
G1 X119.689 Y137.517 E14.25986
G1 X119.757 Y138.500 E14.27536
G1 X119.757 Y158.500 E14.59011
G1 X119.715 Y159.257 E14.60204
G1 X119.689 Y159.482 E14.60561
G1 X119.353 Y160.954 E14.62938
G1 X119.279 Y161.166 E14.63290
G1 X118.622 Y162.529 E14.65671
G1 X118.503 Y162.718 E14.66024
G1 X117.560 Y163.901 E14.68405
G1 X117.401 Y164.060 E14.68758
G1 X116.218 Y165.003 E14.71139
G1 X116.029 Y165.122 E14.71491
G1 X114.666 Y165.779 E14.73873
G1 X114.454 Y165.853 E14.74225
G1 X112.979 Y166.190 E14.76606
G1 X112.757 Y166.215 E14.76959
G1 X112.000 Y166.257 E14.78151
G1 X98.000 Y166.257 E15.00184
G1 X97.243 Y166.215 E15.01377
G1 X97.021 Y166.190 E15.01729
G1 X95.546 Y165.853 E15.04111
G1 X95.328 Y165.777 E15.04474
G1 X93.971 Y165.122 E15.06844
G1 X93.782 Y165.003 E15.07197
G1 X92.599 Y164.060 E15.09578
G1 X92.440 Y163.901 E15.09930
G1 X91.497 Y162.718 E15.12312
G1 X91.378 Y162.529 E15.12664
G1 X90.721 Y161.166 E15.15045
G1 X90.643 Y160.942 E15.15418
G1 X90.310 Y159.479 E15.17779
G1 X90.243 Y158.500 E15.19324
G1 X90.243 Y138.500 E15.50800
G1 X90.285 Y137.750 E15.51981
G1 X90.310 Y137.521 E15.52345
G1 X90.647 Y136.048 E15.54723
G1 X90.721 Y135.834 E15.55078
G1 X91.378 Y134.471 E15.57460
G1 X91.497 Y134.282 E15.57812
G1 X92.440 Y133.099 E15.60193
G1 X92.599 Y132.940 E15.60546
G1 X93.735 Y132.034 E15.62833
G1 X93.983 Y132.317 F12000.000
G1 X94.173 Y132.198 E15.63185 F4320.000
G1 X95.458 Y131.579 E15.65431
G1 X95.671 Y131.504 E15.65785
G1 X97.060 Y131.187 E15.68028
G1 X97.286 Y131.162 E15.68386
G1 X98.000 Y131.121 E15.69511
G1 X112.000 Y131.121 E15.91544
G1 X112.711 Y131.161 E15.92665
G1 X112.937 Y131.187 E15.93023
G1 X114.329 Y131.504 E15.95270
G1 X114.541 Y131.578 E15.95623
G1 X115.827 Y132.198 E15.97871
G1 X116.017 Y132.317 E15.98223
G1 X117.132 Y133.206 E16.00467
G1 X117.292 Y133.366 E16.00823
G1 X118.183 Y134.483 E16.03071
G1 X118.302 Y134.673 E16.03424
G1 X118.922 Y135.959 E16.05672
G1 X118.996 Y136.171 E16.06024
G1 X119.313 Y137.560 E16.08267
G1 X119.379 Y138.500 E16.09750
G1 X119.379 Y158.500 E16.41225
G1 X119.338 Y159.214 E16.42351
G1 X119.313 Y159.440 E16.42708
G1 X118.996 Y160.829 E16.44952
G1 X118.922 Y161.041 E16.45304
G1 X118.302 Y162.327 E16.47552
G1 X118.183 Y162.517 E16.47904
G1 X117.292 Y163.634 E16.50152
G1 X117.134 Y163.792 E16.50505
G1 X116.017 Y164.683 E16.52753
G1 X115.827 Y164.802 E16.53105
G1 X114.541 Y165.422 E16.55353
G1 X114.329 Y165.496 E16.55705
G1 X112.937 Y165.813 E16.57953
G1 X112.714 Y165.838 E16.58306
G1 X112.000 Y165.879 E16.59431
G1 X98.000 Y165.879 E16.81464
G1 X97.286 Y165.838 E16.82590
G1 X97.063 Y165.813 E16.82942
G1 X95.671 Y165.496 E16.85190
G1 X95.453 Y165.419 E16.85553
G1 X94.173 Y164.802 E16.87791
G1 X93.983 Y164.683 E16.88143
G1 X92.866 Y163.792 E16.90391
G1 X92.708 Y163.634 E16.90743
G1 X91.817 Y162.517 E16.92991
G1 X91.698 Y162.327 E16.93344
G1 X91.078 Y161.041 E16.95592
G1 X91.001 Y160.818 E16.95963
G1 X90.687 Y159.437 E16.98192
G1 X90.621 Y158.500 E16.99670
G1 X90.621 Y138.500 E17.31146
G1 X90.661 Y137.792 E17.32261
G1 X90.687 Y137.563 E17.32624
G1 X91.004 Y136.172 E17.34869
G1 X91.078 Y135.959 E17.35224
G1 X91.698 Y134.673 E17.37472
G1 X91.817 Y134.483 E17.37824
G1 X92.708 Y133.366 E17.40072
G1 X92.866 Y133.208 E17.40425
G1 X93.936 Y132.355 E17.42578
